X:1673
T:Come all you Faithful Xtian (Christian) Men
F:http://www.vwml.org/record/CJS2/10/1673
S:Robert Rowlands of Shipley, Sussex
Z:transcribed by Alice Baillie
M:C
L:1/4
K:G
D | G G A A  | B> c d d/c/ | B c/B/ A B/A/ | G3 D | 
G G A A | B> c d d/c/ | B c/B/ A B/A/ | G3 B/c/ | d d d/c/ B | 
(c e) d d/c/ | B B B/A/ G | A3 D | G G A A | B> c d d/c/ | 
B c/B/ A B/A/ | G3 ||

